src/img/volume-down.svg

<svg width="16" height="16" viewBox="0 0 16 16" fill="none" xmlns="http://www.w3.org/2000/svg">
<path d="M9 4C9 3.8078 8.88983 3.63261 8.71659 3.54935C8.54336 3.46609 8.33774 3.4895 8.18765 3.60957L5.82461 5.5H3.5C3.22386 5.5 3 5.72386 3 6V10C3 10.2761 3.22386 10.5 3.5 10.5H5.82461L8.18765 12.3904C8.33774 12.5105 8.54336 12.5339 8.71659 12.4507C8.88983 12.3674 9 12.1922 9 12V4ZM6.31235 6.39044L8 5.04032V10.9597L6.31235 9.60957C6.22369 9.53865 6.11354 9.5 6 9.5H4V6.5H6C6.11354 6.5 6.22369 6.46136 6.31235 6.39044Z" fill="black"/>
<path d="M12.0251 7.99997C12.0251 9.24261 11.5214 10.3676 10.7071 11.182L10 10.4748C10.6334 9.84147 11.0251 8.96647 11.0251 7.99997C11.0251 7.03348 10.6334 6.15848 10 5.5251L10.7071 4.81799C11.5214 5.63233 12.0251 6.75733 12.0251 7.99997Z" fill="black"/>
</svg>

<svg width="16" height="16" viewBox="0 0 16 16" fill="none" xmlns="http://www.w3.org/2000/svg"><path d="M9 4a.5.5 0 0 0-.81-.39l-2.37 1.89h-2.32a.5.5 0 0 0-.5.5v4c0 .28.22.5.5.5h2.32l2.37 1.89a.5.5 0 0 0 .81-.39v-8Zm-2.69 2.39 1.69-1.35v5.92l-1.69-1.35a.5.5 0 0 0-.31-.11h-2v-3h2a.5.5 0 0 0 .31-.11Zm5.72 1.61c0 1.24-.5 2.37-1.32 3.18l-.71-.7a3.49 3.49 0 0 0 0-4.95l.7-.71a4.49 4.49 0 0 1 1.33 3.18Z" fill="#000"/></svg>
